X:4106
T:Mazurka gascogne de Pierre Corbefin
O:england
C:Trad 1, 38
M:3/4
L:1/8
K:C
Gc|:e2e2ce|g2g2ag|f2d2gf|e2c2Gc|\
e2e2ce|g2g2ag|f2fd Bd|c2c2Gc:|
e2ec fe|d2d2GB|d2 de dc|e2e2Gc|\
e2ec fe|d2d2GB|dB df ed|c2c2Gc:|


